!!!OTL: Der treue Husar (19b), S. 83
!!!id: T0134
**kern
*clefG2
*k[f#c#]
*D:
{8a
8b
8a
=1
4.f#
8f#
16e
16e
8a
=2
4.g}
=3
{8a
8dd
8cc#
=4
4.b
16g
16g
8b
8b
=5
4a}
8r
=6
{8a
8b
8cc#
=7
4.dd
8a
8cc#
8cc#
=8
4b}
8r
=9
{8b
8b
8b
=10
4.a
8g
8g
8a
=11
4f#}
8r
=12
{8a
8b
8cc#
=13
4.dd
8a
8cc#
8cc#
=14
4b}
8r
=15
{8b
8b
8b
=16
4.a
8g
8g
8a
=17
4f#}
8r
==
*-
!!!minrhy: 16
!!!meters: 3/4 ]  ZZ[6
!!!cut: Der treue Husar (19b), S. 83
!!!reg: Luxemburg
!!!trd: Singendes Volk, Esch-Alzette 1937 posth.
!!!rhy1: X_X_X_  X__.X_XXX_  X__.
!!!rhy2: X_X_X_  X__.XXX_X_  X__0_
!!!key: T0134  16  D 3/4 ]  ZZ[6
!!!mod: HEPTATONIK IONISCH]  AMBITUS[7b
!!!kad: 456363
!!!akz: 34_65_+16_53_+16_53_
!!!fot: 'a__b__c__d__c__d__
!!!for: 'a__b__c__c__c__c__
!!!fok: 'Vd_^__^a_\__^a_\__
!! PHRAS[AUFTAKTIG]
!!!fkt: Liebeslieder
!!!bem1: Savelborn, fff Leny Goerens, 1907,
!!!bem2: Vater des Autors, deutsche Schallplatten
!! THILL, Mathias:
!! PR[28] 2K[0] 2G[7] 3K[4] 3G[4] 4A[5] 4Ü[0] 5A[0] 6K[0] 6G[4]
!! 7K[2] 7G[0] 8A[0] MEHR[0] SI[25] ABS[57] SR[7] SP[18]
!! ST[12] 2k[9] 2g[33] 3k[4] 3g[0] 4d[0] 4ü[0] 5d[2] 6k[0] 6g[0]
!! 7k[0] 7g[0] 8d[0] mehr[0] si[47] dm[-22] sr[42] sp[5]
!! 1F[13] 2F[65] 3F[13] 4F[0] LF[0] 2P[6] 3P[3] 4P[0] TRI[0] DF[5] AB[62]
!! TF[0] U3K[0] U3[0] U4[0] U4Ü[0] U5[5] U6K[0] U6[0] U7K[0] U7[0]
!! N1[10] N2K[0] N2[21] N3K[0] N3[21] N4[12] N4Ü[0] N5[28] N6K[0] N6[3]
!!!n7k: 0] N7[0] O1[0] O2K[0] O2[0] O3K[0] O3[0] HÖ[0
